src/assets/mail.svg

<svg width="16" height="13" viewBox="0 0 16 13" fill="none" xmlns="http://www.w3.org/2000/svg">
<path d="M14.5057 1.8264L14.5214 1.86058L14.4905 1.88207L8.02572 6.38467L8 6.40259L7.97428 6.38467L1.50946 1.88207L1.47861 1.86058L1.49427 1.8264C1.5548 1.69425 1.6462 1.59125 1.76802 1.51872C1.88839 1.44705 2.02603 1.40577 2.17994 1.39402L2.17993 1.39389H2.18337H13.8166V1.39376L13.8201 1.39402C13.974 1.40577 14.1116 1.44705 14.232 1.51872C14.3538 1.59125 14.4452 1.69425 14.5057 1.8264ZM14.5244 3.51782L14.5951 3.46873V3.55478V10.8334C14.5951 11.0484 14.5193 11.2296 14.3679 11.3738C14.2177 11.517 14.034 11.5944 13.8191 11.6062L13.8191 11.6063H13.8166H2.18337V11.6064L2.18089 11.6062C1.96603 11.5944 1.78233 11.517 1.63207 11.3738C1.48067 11.2296 1.40489 11.0484 1.40489 10.8334V3.55478V3.46873L1.47557 3.51782L7.61547 7.78288C7.73315 7.85698 7.86101 7.89389 8 7.89389C8.139 7.89389 8.26686 7.85698 8.38453 7.78288L14.5244 3.51782ZM15.337 0.666579C14.9366 0.263757 14.4308 0.0562696 13.8162 0.0450916H2.18376C1.56921 0.0562696 1.06341 0.263757 0.663047 0.666579C0.26237 1.06971 0.0562554 1.56895 0.045 2.16718V10.833C0.0562554 11.4312 0.26237 11.9305 0.663047 12.3336C1.06342 12.7364 1.56922 12.9439 2.18378 12.9551H13.8162C14.4308 12.9439 14.9366 12.7364 15.337 12.3336C15.7376 11.9305 15.9437 11.4312 15.955 10.833V2.16719C15.9437 1.56896 15.7376 1.06972 15.337 0.666579Z" fill="#7F858D" stroke="white" stroke-width="0.09"/>
</svg>

<svg width="16" height="13" fill="none" xmlns="http://www.w3.org/2000/svg">
  <path
    d="M14.506 1.826l.015.035-.03.021-6.465 4.503L8 6.403l-.026-.018L1.51 1.882l-.03-.021.015-.035a.678.678 0 01.274-.307.933.933 0 01.412-.125h11.637v0h.003a.933.933 0 01.412.125.678.678 0 01.274.307zm.018 1.692l.071-.05v7.366a.717.717 0 01-.227.54.837.837 0 01-.549.233h0H2.183v0h-.002a.837.837 0 01-.549-.232.717.717 0 01-.227-.54V3.468l.07.049 6.14 4.265a.707.707 0 00.385.11.707.707 0 00.385-.11l6.14-4.265zm.813-2.851c-.4-.403-.906-.61-1.52-.622H2.183C1.569.056 1.064.264.663.667c-.4.403-.607.902-.618 1.5v8.666c.011.598.217 1.098.618 1.5.4.403.906.61 1.52.622h11.633c.615-.011 1.12-.219 1.521-.621.4-.403.607-.903.618-1.501V2.167c-.011-.598-.217-1.097-.618-1.5z"
    fill="currentColor" stroke="#fff" stroke-width=".09" />
</svg>
